svgs/trenitalia.svg

<svg xmlns="http://www.w3.org/2000/svg" viewBox="0 0 192 192"><path fill="none" stroke="#000" stroke-linecap="round" stroke-linejoin="round" stroke-width="8" d="M170.552 51.824c-44.459.345-51.811 7.764-61.727 26.057h49.076Zm-47.012 64.195a40.146 40.146 0 0 1-11.011 21.338 39.531 39.531 0 0 1-21.145 11.107 118.395 118.395 0 0 1-16.243 1.722c-6.498.171-58.646.171-58.646.171s19.834-.172 22.57-.172a176.4 176.4 0 0 0 19.323-1.381c13.616-1.159 27.265-15.486 30.771-28.815l3.933-13.459a24.445 24.445 0 0 1 8.321-14.085 24.05 24.05 0 0 1 15.276-5.588l38.346-.942-13.379.329a17.53 17.53 0 0 0-11.17 4.734 17.832 17.832 0 0 0-5.493 10.898Z"/><path fill="none" stroke="#000" stroke-linecap="round" stroke-linejoin="round" stroke-width="8" d="m79.243 89.961-34.538 3.445-23.252 46.599c18.466 0 27.871-1.723 38.642-17.256a320.01 320.01 0 0 0 19.148-32.787Zm96.264-48.318h-72.828c-24.629 0-37.284 8.456-44.98 23.987l-5.984 12.25h33.163c11.636-22.778 28.735-35.71 63.788-36.237Z"/></svg>

<svg
    xmlns="http://www.w3.org/2000/svg"
    viewBox="0 0 192 192"
    id="vector">
    <path
        id="path"
        d="M 170.552 51.824 C 126.093 52.169 118.741 59.588 108.825 77.881 L 157.901 77.881 Z M 123.54 116.019 C 122.126 124.102 118.28 131.553 112.529 137.357 C 106.777 143.16 99.393 147.039 91.384 148.464 C 86.015 149.411 80.588 149.987 75.141 150.186 C 68.643 150.357 16.495 150.357 16.495 150.357 C 16.495 150.357 36.329 150.185 39.065 150.185 C 45.526 150.079 51.976 149.618 58.388 148.804 C 72.004 147.645 85.653 133.318 89.159 119.989 L 93.092 106.53 C 94.172 101.008 97.113 96.03 101.413 92.445 C 105.713 88.861 111.112 86.885 116.689 86.857 L 155.035 85.915 L 141.656 86.244 C 137.496 86.439 133.536 88.117 130.486 90.978 C 127.436 93.84 125.489 97.703 124.993 101.876 Z"
        fill="none"
        stroke="#000000"
        stroke-width="8"
        stroke-linecap="round"
        stroke-linejoin="round"/>
    <path
        id="path_1"
        d="M 79.243 89.961 L 44.705 93.406 L 21.453 140.005 C 39.919 140.005 49.324 138.282 60.095 122.749 C 67.118 112.214 73.512 101.265 79.243 89.962 Z M 175.507 41.643 L 102.679 41.643 C 78.05 41.643 65.395 50.099 57.699 65.63 L 51.715 77.88 L 84.878 77.88 C 96.514 55.102 113.613 42.17 148.666 41.643 Z"
        fill="none"
        stroke="#000000"
        stroke-width="8"
        stroke-linecap="round"
        stroke-linejoin="round"/>
</svg>
